X: 21841
T: Kirk's
R: barndance
M: 4/4
K: Dmajor
AG|:FGAF D2d2|cdec A2e2|gfed B2ed|c2A2A2 ag|
FGAF D2d2|cdec A2e2|gfed Bece|1 d2d2d2AG:|2 d2d2d2fg||
|:afdfa2a2|geceg2g2|fedcB2ed|1 c2A2A2fg|
afdfa2a2|geceg2g2|gfed Bece|d2d2d2fg:|
[2 c2A2A2AG|FGAF D2d2|cdec A2e2|gfed Bece|d2d2d2||

